X:183
T: WOHLAUF IHR LIEBEN LEUTE
N: F0320
O: Europa, Mitteleuropa, Deutschland
R: Jugend - Lied, Wander - Lied
M: 6/8
L: 1/8
K: C
G, | C2CC2C | E3C2
E | D2CB,2A, | G,3z2
G, | D2DD2D | F3D2
F | E2DC2B, | C3z2

